X:1
T:Title
%%score ( 1 2 3 ) ( 4 5 )
L:1/8
Q:1/4=100
M:4/4
K:Eb
V:1 treble nm="Strings 1, Soprano"
V:2 treble 
V:3 treble 
V:4 bass nm="Strings 1, Bass"
V:5 bass 
V:1
 [EB]4 A2 G2 | G3 F E2 E2 | [CE]4 [=B,F]4 | [B,G]4 [FB]4 | z4 d4 | [Ec]4 [GB]2 [EG]2 | %6
 [FA]4 [EG]4 | [DF]8 | [EG]4 [DA]2 [EB]2 | [Ec]4 [EF]4 | [DF]4 E2 [DF]2 | [EG]4 [DF]4 | %12
 [EG]4 [EA]4 | [EB]4 E2 F2 | [EG]4 [B,F]4 | [B,E]8 |] %16
V:2
 z4 E4 | D4 z4 | x8 | x8 | e4 z2 F2 | x8 | x8 | x8 | x8 | x8 | x8 | x8 | x8 | x8 | x8 | x8 |] %16
V:3
 x8 | x8 | x8 | x8 | G6 z2 | x8 | x8 | x8 | x8 | x8 | x8 | x8 | x8 | x8 | x8 | x8 |] %16
V:4
 z4 C2 z2 | B,4 z4 | [A,,A,]4 [A,,A,]4 | E,4 [D,B,]4 | [C,C]4 [G,=B,]4 | C2 z2 E2 z2 | %6
 [D,B,]4 [E,B,]4 | [B,,B,]8 | z4 B,2 z2 | A,4 [=A,C]4 | z4 B,4 | [E,B,]4 [B,,B,]4 | %12
 [E,B,]4 [C,A,]4 | [B,,G,]4 [C,=A,]4 | [B,,B,]4 [B,,A,]4 | [E,G,]8 |] %16
V:5
 [E,G,]4 E,2- [E,B,]2 | B,,3- [B,,A,] [C,G,]2 [C,G,]2 | x8 | x8 | x8 | A,2- [A,D]2 E,2- [E,B,]2 | %6
 x8 | x8 | [E,B,]4 F,2- [F,G,]2 | x8 | B,2 A,2 G,2 F,2 | x8 | x8 | x8 | x8 | x8 |] %16

